X:205
T:O'Mahony's Hornpipe
M:4/4
R:Hornpipe
Z:Lark camp 96 (Laurie)
K:G
ge|dBAB GFGA|BGBd gfga|bage dBGB|BAAG A2 ge|\
dBAB ~G3A|BGBd ~g3a|bage dBAB|G2GF Gz::ga|\
bagb abga|bagb abga|b2 ba gedB|{d}BAAG A2 ge|\
dBAB GFGA|B/2A/2G Bd gfga|bage dBAB|G2Gf Gz:|
